X:1
T:The Lord Is My Light
T:The Lord Is My Light
T:John W. Bischoff
T:James L. Nicholson, 1877
T:Public Domain Courtesy of the Cyber Hymnal™
T:Public Domain Courtesy of the Cyber Hymnal™
C:John W. Bischoff
Z:Public Domain
Z:Courtesy of the Cyber Hymnal™
%%score ( 1 2 ) ( 3 4 )
L:1/8
Q:1/4=105
M:2/4
K:G
V:1 treble 
V:2 treble 
V:3 bass 
V:4 bass 
V:1
 D | [DB]2 [Ec][DB] | [CA]2 [CD]2 | [CA]2 [DB][CA] | [B,G]2 z [DG] | [EG]2 [DF][CE] | [B,D]2 (GA) | %7
w: 1.~The|Lord is my|light; then|why should I|fear? By|day and by|night His *|
w: 2.~The|Lord is my|light; though|clouds may a-|rise; Faith,|strong- er than|sight, looks *|
w: 3.~The|Lord is my|light, the|Lord is my|strength; I|know in His|might I’ll *|
w: 4.~The|Lord is my|light, my|all and in|all; There|is in His|sight no *|
 [DB]2 [Dc][DB] | [DA]2 z D | [DB]2 [Ec][DB] | [CA]2 [CD][CD] | [CA]2 [DB][CA] | [B,G]2 z [DG] | %13
w: pre- sence is|near; He|is my sal-|va- tion from|sor- row and|sin; This|
w: up to the|skies Where|Je- sus for-|ev- er in|glo- ry doth|reign: Then|
w: con- quer at|length; My|weak- ness in|mer- cy He|co- vers with|power, And,|
w: dark- ness at|all; He|is my Re-|deem- er, my|Sav- ior and|king; With|
 [EG]2 [DF][CE] | [B,D]2 [B,G][^CA] | [DB]2 [CA]>[B,G] | [B,G]2 z ||"^Refrain" [DG] | %18
w: bless- èd per-|sua- sion the|Spir- it brings|in.||
w: how can I|ev- er in|dark- ness re-|main?|The|
w: walk- ing by|faith, He up-|holds me each|hour.||
w: saints and with|an- gels His|prais- es I|sing.||
 [Dd]2 [DB][DG] | [DA]2 D2 | [Dd]2 [DB][DG] | [DA]2 z [^DB] | [^DA]2 [DF][DF] | [EG]2 B2 | %24
w: ||||||
w: Lord is my|light, my|joy, and my|song; By|day and by|night He|
w: ||||||
w: ||||||
 [^CB]2 [CA]>[CB] | [DA]2 z D | [DB]2 [Ec][DB] | [CA]2 [CD]2 | [CA]2 [DB][CA] | [B,G]2 z [DG] | %30
w: ||||||
w: leads me a-|long; The|Lord is my|light, my|joy, and my|song; By|
w: ||||||
w: ||||||
 [EG]2 [DF][CE] | [B,D]2 ([B,G][^CA]) | [DB]2 [CA]>[B,G] | [B,G]3 |] %34
w: ||||
w: day and by|night He *|leads me a-|long;|
w: ||||
w: ||||
V:2
 D | x4 | x4 | x4 | x4 | x4 | x2 D2 | x4 | x3 D | x4 | x4 | x4 | x4 | x4 | x4 | x4 | x3 || x | x4 | %19
 x2 D2 | x4 | x4 | x4 | x2 (ED) | x4 | x3 D | x4 | x4 | x4 | x4 | x4 | x4 | x4 | x3 |] %34
V:3
 D, | [G,,G,]2 [G,,G,][G,,G,] | [D,F,]2 [D,F,]2 | [D,F,]2 [D,F,][D,F,] | [G,,G,]2 z [B,,G,] | %5
 [C,G,]2 [C,G,][C,G,] | [G,,G,]2 ([B,,G,][D,F,]) | G,2 [F,A,]G, | [D,F,]2 z D, | %9
 [G,,G,]2 [G,,G,][G,,G,] | [D,F,]2 [D,F,][D,F,] | [D,F,]2 [D,F,][D,F,] | [G,,G,]2 z [B,,G,] | %13
 [C,G,]2 [C,G,][C,G,] | [G,,G,]2 [E,G,][E,G,] | [D,G,]2 [D,F,]>[G,,G,] | [G,,G,]2 z || [G,B,] | %18
 [G,B,]2 [G,,G,][B,,G,] | [D,F,]2 D,2 | [G,B,]2 [G,,G,][B,,G,] | [D,F,]2 z [B,,F,] | %22
 [B,,F,]2 [B,,B,][B,,B,] | [E,B,]2 [E,G,]2 | [A,,G,]2 [A,,G,]>[A,,G,] | [D,F,]2 z D, | %26
 [G,,G,]2 [G,,G,][G,,G,] | [D,F,]2 [D,F,]2 | [D,F,]2 [D,F,][D,F,] | [G,,G,]2 z [B,,G,] | %30
 [C,G,]2 [C,G,][C,G,] | [G,,G,]2 [E,G,]2 | [D,G,]2 [D,F,]>[G,,G,] | [G,,G,]3 |] %34
V:4
 D, | x4 | x4 | x4 | x4 | x4 | x4 | G,2 G, x | x3 D, | x4 | x4 | x4 | x4 | x4 | x4 | x4 | x3 || x | %18
 x4 | x2 D,2 | x4 | x4 | x4 | x4 | x4 | x3 D, | x4 | x4 | x4 | x4 | x4 | x4 | x4 | x3 |] %34

